X: 26990
T: Miss Elliott's
R: reel
M: 4/4
K: Fmajor
F2 GF A2 cA|d2 cd f2 df|F2 GF A2 cA|c2 df dcAG|
F2 GF A2 cA|d2 cd f2 df|F2 GF A2 cA|c2 df F4:|
d3 c f3 c|dcdf dcfc|d3 c f3 c|df d/c/A Ac A/G/F|
d3 c f3 c|dcdf dcAG|F2 GF A2 cA|c2 df F4:|

